Numix-Light/16/status/indicator-keyboard-Ta-6.svg

<?xml version="1.0" encoding="UTF-8" standalone="no"?>
<svg
   xmlns:dc="http://purl.org/dc/elements/1.1/"
   xmlns:cc="http://creativecommons.org/ns#"
   xmlns:rdf="http://www.w3.org/1999/02/22-rdf-syntax-ns#"
   xmlns:svg="http://www.w3.org/2000/svg"
   xmlns="http://www.w3.org/2000/svg"
   xmlns:sodipodi="http://sodipodi.sourceforge.net/DTD/sodipodi-0.dtd"
   xmlns:inkscape="http://www.inkscape.org/namespaces/inkscape"
   viewBox="0 0 16 16"
   id="svg2"
   version="1.1"
   inkscape:version="0.91 r13725"
   sodipodi:docname="indicator-keyboard-Ta-6.svg">
  <metadata
     id="metadata14">
    <rdf:RDF>
      <cc:Work
         rdf:about="">
        <dc:format>image/svg+xml</dc:format>
        <dc:type
           rdf:resource="http://purl.org/dc/dcmitype/StillImage" />
      </cc:Work>
    </rdf:RDF>
  </metadata>
  <defs
     id="defs12" />
  <sodipodi:namedview
     pagecolor="#ffffff"
     bordercolor="#666666"
     borderopacity="1"
     objecttolerance="10"
     gridtolerance="10"
     guidetolerance="10"
     inkscape:pageopacity="0"
     inkscape:pageshadow="2"
     inkscape:window-width="640"
     inkscape:window-height="480"
     id="namedview10"
     showgrid="false"
     inkscape:zoom="14.75"
     inkscape:cx="8"
     inkscape:cy="8"
     inkscape:window-x="65"
     inkscape:window-y="24"
     inkscape:window-maximized="0"
     inkscape:current-layer="svg2" />
  <path
     style="fill:#353535;fill-opacity:1"
     d="M 1.5996094 0 C 0.71320937 2.9605947e-16 0 0.71320937 0 1.5996094 L 0 14.400391 C 2.9605947e-16 15.286791 0.71320937 16 1.5996094 16 L 14.400391 16 C 15.286791 16 16 15.286791 16 14.400391 L 16 1.5996094 C 16 0.71320937 15.286791 0 14.400391 0 L 1.5996094 0 z M 1.9921875 4.859375 L 6.5996094 4.859375 L 6.5996094 5.390625 L 4.6035156 5.390625 L 4.6035156 11.095703 L 3.9902344 11.095703 L 3.9902344 5.390625 L 1.9921875 5.390625 L 1.9921875 4.859375 z M 8.6582031 6.3359375 C 8.9642031 6.3359375 9.2216406 6.3807031 9.4316406 6.4707031 C 9.6476406 6.5547031 9.8230781 6.6740781 9.9550781 6.8300781 C 10.087078 6.9800781 10.182187 7.1591406 10.242188 7.3691406 C 10.302187 7.5791406 10.332031 7.8086875 10.332031 8.0546875 L 10.332031 10.988281 C 10.272031 11.006281 10.184313 11.026781 10.070312 11.050781 C 9.9563126 11.068781 9.8257813 11.089281 9.6757812 11.113281 C 9.5257812 11.137281 9.357875 11.155969 9.171875 11.167969 C 8.991875 11.185969 8.8052812 11.195313 8.6132812 11.195312 C 8.3672813 11.195312 8.1396875 11.167281 7.9296875 11.113281 C 7.7256875 11.059281 7.5446719 10.975328 7.3886719 10.861328 C 7.2386719 10.741328 7.1192969 10.592109 7.0292969 10.412109 C 6.9452969 10.226109 6.9023437 10.000328 6.9023438 9.7363281 C 6.9023438 9.4843281 6.950875 9.2698437 7.046875 9.0898438 C 7.142875 8.9098438 7.279125 8.7624375 7.453125 8.6484375 C 7.627125 8.5284375 7.8322656 8.4407187 8.0722656 8.3867188 C 8.3122656 8.3327188 8.5734688 8.3066406 8.8554688 8.3066406 C 8.9394687 8.3066406 9.0271875 8.3122187 9.1171875 8.3242188 C 9.2131875 8.3302187 9.3027188 8.341375 9.3867188 8.359375 C 9.4767188 8.371375 9.5513281 8.3862969 9.6113281 8.4042969 C 9.6773281 8.4162969 9.7240469 8.4294063 9.7480469 8.4414062 L 9.7480469 8.1523438 C 9.7480469 7.9903438 9.7349375 7.8355469 9.7109375 7.6855469 C 9.6869375 7.5295469 9.6328281 7.3914844 9.5488281 7.2714844 C 9.4708281 7.1454844 9.3570313 7.0466094 9.2070312 6.9746094 C 9.0630313 6.8966094 8.8708594 6.8574219 8.6308594 6.8574219 C 8.2888594 6.8574219 8.0332344 6.8816875 7.8652344 6.9296875 C 7.6972344 6.9776875 7.5760469 7.016875 7.4980469 7.046875 L 7.4160156 6.5332031 C 7.5180156 6.4852031 7.6747656 6.4404375 7.8847656 6.3984375 C 8.1007656 6.3564375 8.3582031 6.3359375 8.6582031 6.3359375 z M 8.8378906 8.8105469 C 8.6938906 8.8105469 8.5446719 8.8217031 8.3886719 8.8457031 C 8.2326719 8.8637031 8.0890313 8.9084687 7.9570312 8.9804688 C 7.8250312 9.0464688 7.7168125 9.1397656 7.6328125 9.2597656 C 7.5488125 9.3797656 7.5058594 9.5383281 7.5058594 9.7363281 C 7.5058594 9.9103281 7.5338906 10.057734 7.5878906 10.177734 C 7.6478906 10.297734 7.7280781 10.394797 7.8300781 10.466797 C 7.9380781 10.538797 8.0649844 10.592906 8.2089844 10.628906 C 8.3589844 10.658906 8.5268906 10.673828 8.7128906 10.673828 C 8.9408906 10.673828 9.1386406 10.666297 9.3066406 10.654297 C 9.4806406 10.636297 9.6280469 10.615797 9.7480469 10.591797 L 9.7480469 8.953125 C 9.6820469 8.923125 9.5756406 8.8932813 9.4316406 8.8632812 C 9.2876406 8.8272812 9.0898906 8.8105469 8.8378906 8.8105469 z M 13.738281 8.8242188 L 13.761719 9.1464844 C 13.523819 9.1620844 13.304362 9.1993125 13.101562 9.2578125 C 12.902663 9.3124125 12.724359 9.4005844 12.568359 9.5214844 C 12.412359 9.6384843 12.281081 9.7893625 12.175781 9.9765625 C 12.070481 10.163763 11.997984 10.394969 11.958984 10.667969 C 12.064284 10.613369 12.191644 10.566344 12.339844 10.527344 C 12.488044 10.484444 12.646753 10.462891 12.814453 10.462891 C 13.032853 10.462891 13.217041 10.498159 13.369141 10.568359 C 13.521241 10.634659 13.644681 10.722838 13.738281 10.835938 C 13.831881 10.949038 13.90046 11.080316 13.943359 11.228516 C 13.986259 11.376716 14.007812 11.533466 14.007812 11.697266 C 14.007812 11.849366 13.9843 12.000244 13.9375 12.152344 C 13.8907 12.304444 13.816243 12.443559 13.714844 12.568359 C 13.617344 12.689259 13.491944 12.789187 13.339844 12.867188 C 13.191644 12.945188 13.015294 12.984375 12.808594 12.984375 C 12.383494 12.984375 12.060191 12.835463 11.837891 12.539062 C 11.619491 12.238762 11.509766 11.821409 11.509766 11.287109 C 11.509766 10.495409 11.697872 9.8958281 12.076172 9.4863281 C 12.458372 9.0768281 13.012881 8.8554188 13.738281 8.8242188 z M 12.779297 10.794922 C 12.599897 10.794922 12.441187 10.816475 12.304688 10.859375 C 12.172087 10.898375 12.048641 10.9454 11.931641 11 C 11.923841 11.0663 11.919922 11.119203 11.919922 11.158203 L 11.919922 11.292969 C 11.919922 11.476269 11.931678 11.650653 11.955078 11.814453 C 11.982378 11.978253 12.02745 12.121294 12.09375 12.246094 C 12.16395 12.370894 12.256041 12.470822 12.369141 12.544922 C 12.482241 12.615122 12.627234 12.650391 12.802734 12.650391 C 12.947034 12.650391 13.070475 12.624919 13.171875 12.574219 C 13.273275 12.519619 13.353616 12.449081 13.416016 12.363281 C 13.478416 12.277481 13.523481 12.177553 13.550781 12.064453 C 13.581981 11.951353 13.597656 11.833784 13.597656 11.708984 C 13.597656 11.396984 13.527119 11.165778 13.386719 11.017578 C 13.250219 10.869378 13.048397 10.794922 12.779297 10.794922 z "
     id="path4" />
</svg>

<svg xmlns="http://www.w3.org/2000/svg" viewBox="0 0 16 16">
 <path d="m 1.6 0 c -0.886 0 -1.6 0.713 -1.6 1.6 l 0 12.801 c 0 0.886 0.713 1.6 1.6 1.6 l 12.801 0 c 0.886 0 1.6 -0.713 1.6 -1.6 l 0 -12.801 c 0 -0.886 -0.713 -1.6 -1.6 -1.6 l -12.801 0 z m 0.393 4.859 l 4.607 0 l 0 0.531 l -1.996 0 l 0 5.705 l -0.613 0 l 0 -5.705 l -1.998 0 l 0 -0.531 z m 6.666 1.477 c 0.306 0 0.563 0.045 0.773 0.135 c 0.216 0.084 0.391 0.203 0.523 0.359 c 0.132 0.15 0.227 0.329 0.287 0.539 c 0.06 0.21 0.09 0.44 0.09 0.686 l 0 2.934 c -0.06 0.018 -0.148 0.038 -0.262 0.063 c -0.114 0.018 -0.245 0.038 -0.395 0.063 c -0.15 0.024 -0.318 0.043 -0.504 0.055 c -0.18 0.018 -0.367 0.027 -0.559 0.027 c -0.246 0 -0.474 -0.028 -0.684 -0.082 c -0.204 -0.054 -0.385 -0.138 -0.541 -0.252 c -0.15 -0.12 -0.269 -0.269 -0.359 -0.449 c -0.084 -0.186 -0.127 -0.412 -0.127 -0.676 c 0 -0.252 0.049 -0.466 0.145 -0.646 c 0.096 -0.18 0.232 -0.327 0.406 -0.441 c 0.174 -0.12 0.379 -0.208 0.619 -0.262 c 0.24 -0.054 0.501 -0.08 0.783 -0.08 c 0.084 0 0.172 0.006 0.262 0.018 c 0.096 0.006 0.186 0.017 0.27 0.035 c 0.09 0.012 0.165 0.027 0.225 0.045 c 0.066 0.012 0.113 0.025 0.137 0.037 l 0 -0.289 c 0 -0.162 -0.013 -0.317 -0.037 -0.467 c -0.024 -0.156 -0.078 -0.294 -0.162 -0.414 c -0.078 -0.126 -0.192 -0.225 -0.342 -0.297 c -0.144 -0.078 -0.336 -0.117 -0.576 -0.117 c -0.342 0 -0.598 0.024 -0.766 0.072 c -0.168 0.048 -0.289 0.087 -0.367 0.117 l -0.082 -0.514 c 0.102 -0.048 0.259 -0.093 0.469 -0.135 c 0.216 -0.042 0.473 -0.063 0.773 -0.063 z m 0.18 2.475 c -0.144 0 -0.293 0.011 -0.449 0.035 c -0.156 0.018 -0.3 0.063 -0.432 0.135 c -0.132 0.066 -0.24 0.159 -0.324 0.279 c -0.084 0.12 -0.127 0.279 -0.127 0.477 c 0 0.174 0.028 0.321 0.082 0.441 c 0.06 0.12 0.14 0.217 0.242 0.289 c 0.108 0.072 0.235 0.126 0.379 0.162 c 0.15 0.03 0.318 0.045 0.504 0.045 c 0.228 0 0.426 -0.008 0.594 -0.02 c 0.174 -0.018 0.321 -0.038 0.441 -0.063 l 0 -1.639 c -0.066 -0.03 -0.172 -0.06 -0.316 -0.09 c -0.144 -0.036 -0.342 -0.053 -0.594 -0.053 z m 4.9 0.014 l 0.023 0.322 c -0.238 0.016 -0.457 0.053 -0.66 0.111 c -0.199 0.055 -0.377 0.143 -0.533 0.264 c -0.156 0.117 -0.287 0.268 -0.393 0.455 c -0.105 0.187 -0.178 0.418 -0.217 0.691 c 0.105 -0.055 0.233 -0.102 0.381 -0.141 c 0.148 -0.043 0.307 -0.064 0.475 -0.064 c 0.218 0 0.403 0.035 0.555 0.105 c 0.152 0.066 0.276 0.154 0.369 0.268 c 0.094 0.113 0.162 0.244 0.205 0.393 c 0.043 0.148 0.064 0.305 0.064 0.469 c 0 0.152 -0.024 0.303 -0.07 0.455 c -0.047 0.152 -0.121 0.291 -0.223 0.416 c -0.098 0.121 -0.223 0.221 -0.375 0.299 c -0.148 0.078 -0.325 0.117 -0.531 0.117 c -0.425 0 -0.748 -0.149 -0.971 -0.445 c -0.218 -0.3 -0.328 -0.718 -0.328 -1.252 c 0 -0.792 0.188 -1.391 0.566 -1.801 c 0.382 -0.409 0.937 -0.631 1.662 -0.662 z m -0.959 1.971 c -0.179 0 -0.338 0.022 -0.475 0.064 c -0.133 0.039 -0.256 0.086 -0.373 0.141 c -0.008 0.066 -0.012 0.119 -0.012 0.158 l 0 0.135 c 0 0.183 0.012 0.358 0.035 0.521 c 0.027 0.164 0.072 0.307 0.139 0.432 c 0.07 0.125 0.162 0.225 0.275 0.299 c 0.113 0.07 0.258 0.105 0.434 0.105 c 0.144 0 0.268 -0.025 0.369 -0.076 c 0.101 -0.055 0.182 -0.125 0.244 -0.211 c 0.062 -0.086 0.107 -0.186 0.135 -0.299 c 0.031 -0.113 0.047 -0.231 0.047 -0.355 c 0 -0.312 -0.071 -0.543 -0.211 -0.691 c -0.136 -0.148 -0.338 -0.223 -0.607 -0.223 z" style="fill:#353535;fill-opacity:1"/>
</svg>
